img/grad-icon/logo.svg

<svg width="119" height="50" viewBox="0 0 119 50" fill="none" xmlns="http://www.w3.org/2000/svg">
<mask id="mask0_12_52364" style="mask-type:alpha" maskUnits="userSpaceOnUse" x="0" y="0" width="119" height="50">
<path fill-rule="evenodd" clip-rule="evenodd" d="M9.80453 2.71763C4.51549 4.32201 0.112404 5.71057 0.0198331 5.80342C-0.179507 6.00248 1.17015 16.108 1.9891 20.5515C3.48897 28.6866 7.30568 36.6046 12.9065 43.2001C14.9096 45.5589 18.9688 49.3944 19.4617 49.3944C19.9254 49.3944 24.5736 44.9127 26.4585 42.6484C31.1299 37.0362 34.565 30.3719 36.342 23.4734C36.8423 21.5314 39.2452 5.93433 39.0692 5.77162C39.0388 5.74323 34.9248 4.48926 29.9271 2.98427C24.9294 1.47957 20.5209 0.147795 20.1304 0.0245562C19.598 -0.143548 17.0165 0.529721 9.80453 2.71763ZM27.2453 6.37163C31.2191 7.57448 34.4982 8.58481 34.5323 8.6169C34.6791 8.75519 32.9092 20.2516 32.4679 22.0258C31.3909 26.357 29.5485 30.747 27.1122 34.7872L26.095 36.4742L26.1052 27.8134L26.1155 19.1527L27.0275 18.5802C27.8752 18.0481 27.9453 17.8834 28.024 16.2375L28.1083 14.4673H26.9591C25.9144 14.4673 25.8096 14.5338 25.8096 15.196C25.8096 15.8235 25.7012 15.9124 25.0288 15.8349C24.4696 15.7707 24.222 15.5637 24.157 15.1062C24.0832 14.5855 23.8864 14.4673 23.0921 14.4673C22.2354 14.4673 22.1182 14.5554 22.1182 15.1971C22.1182 15.7911 21.9995 15.9098 21.4793 15.836C20.9894 15.7664 20.8196 15.5296 20.7515 14.8223C20.6947 14.2356 20.509 13.8994 20.2409 13.8994C19.9044 13.8994 19.8365 13.5439 19.9038 12.1357L19.9885 10.3721L22.2246 10.0273C24.7488 9.6383 25.4959 9.21577 24.218 8.90086C23.766 8.78955 22.6773 8.33521 21.799 7.89138C19.2459 6.60107 19.2786 6.56898 19.2786 10.3766C19.2786 13.3982 19.2331 13.6805 18.7265 13.8131C18.3548 13.9102 18.1461 14.2495 18.0876 14.8512C18.0218 15.5293 17.8466 15.767 17.3618 15.836C16.8416 15.9098 16.7229 15.7911 16.7229 15.1971C16.7229 14.5554 16.6056 14.4673 15.7489 14.4673C14.9547 14.4673 14.7579 14.5855 14.6841 15.1062C14.6191 15.5637 14.3715 15.7707 13.8123 15.8349C13.1399 15.9124 13.0314 15.8235 13.0314 15.196C13.0314 14.5525 12.9153 14.4673 12.0376 14.4673H11.0437V16.2969C11.0437 18.0288 11.0892 18.1537 11.8956 18.6299L12.7475 19.1331L12.7412 27.6618C12.7339 37.5831 12.9082 37.3539 9.92549 31.3629C8.2081 27.9131 7.10747 24.9242 6.31835 21.5663C5.95005 19.9991 4.22698 8.73758 4.33432 8.59929C4.47886 8.41273 19.485 4.01391 19.7204 4.08887C19.8854 4.14169 23.2716 5.16877 27.2453 6.37163ZM47.4267 9.9711C44.6609 11.3401 44.3076 15.5731 46.7855 17.6579C47.8787 18.5779 49.8579 18.9281 51.3825 18.4714C52.6265 18.0986 52.8651 17.8439 52.6052 17.1664C52.4579 16.7827 52.2239 16.7325 51.3973 16.9065C49.597 17.2856 48.7246 17.1042 47.8875 16.1762C46.2136 14.32 47.3276 11.0689 49.6623 10.9973C50.2089 10.9806 51.0534 11.0641 51.5387 11.1828C52.2991 11.3688 52.4437 11.3131 52.5831 10.7801C52.7143 10.2783 52.5629 10.0858 51.7806 9.75899C50.4074 9.1851 48.8626 9.26035 47.4267 9.9711ZM54.395 9.54545C54.2908 9.64938 54.2056 11.6939 54.2056 14.0888V18.4428H55.1995H56.1934V16.739C56.1934 15.3042 56.2717 15.0358 56.6903 15.0395C57.5192 15.0469 57.8909 15.4419 58.4437 16.9034C58.9293 18.1872 59.056 18.3079 59.9993 18.3891L61.0261 18.4774L60.4431 16.9988C60.1228 16.1856 59.7372 15.29 59.5867 15.0088C59.3757 14.6144 59.4762 14.3339 60.0248 13.7853C61.308 12.502 60.873 10.4731 59.1613 9.75785C58.187 9.35094 54.7429 9.19731 54.395 9.54545ZM61.2149 9.56902C61.147 9.68629 61.7786 10.9953 62.6179 12.4782C63.9747 14.8745 64.1442 15.3558 64.1442 16.8086V18.4428H65.1381H66.132V16.6058C66.132 14.9112 66.2421 14.5823 67.5518 12.3649C68.3326 11.0428 68.9715 9.81691 68.9715 9.64058C68.9715 9.45004 68.5973 9.35605 68.0487 9.40915C67.2331 9.48781 67.0131 9.71128 66.1558 11.3327C65.4235 12.7178 65.1242 13.0654 64.9339 12.7525C64.7951 12.5242 64.3027 11.6669 63.8393 10.8468C63.124 9.58094 62.8718 9.35605 62.1676 9.35605C61.7113 9.35605 61.2828 9.45174 61.2149 9.56902ZM70.4623 9.54403C70.2 9.64995 70.1074 10.8287 70.1074 14.065V18.4428H71.1012H72.0951V16.881V15.3192H73.5104C74.6556 15.3192 75.0937 15.169 75.8059 14.5329C76.5573 13.8614 76.6859 13.5484 76.6859 12.3899C76.6859 10.8545 76.3281 10.2869 75.0148 9.73797C74.1376 9.37138 71.2004 9.24615 70.4623 9.54403ZM77.4903 10.1991C77.4903 11.03 77.5349 11.0598 78.7682 11.0598H80.046V14.7513V18.4428H81.0398H82.0337V14.7675V11.0925L83.2405 11.005C84.3153 10.9275 84.4474 10.84 84.4474 10.2079V9.49803L80.9689 9.41823L77.4903 9.33844V10.1991ZM87.2327 9.89302C84.0992 11.3574 84.0799 16.6064 87.2023 18.1179C88.8127 18.8974 90.1163 18.8886 91.6781 18.0878C93.2089 17.3029 93.96 15.9868 93.96 14.0888C93.96 11.3389 92.4443 9.61559 89.8687 9.43698C88.8573 9.36684 88.0653 9.50371 87.2327 9.89302ZM58.0206 11.0527C58.5783 11.2648 58.749 11.5286 58.749 12.1786C58.749 13.1188 58.1175 13.6154 56.922 13.6154C56.2371 13.6154 56.1934 13.5305 56.1934 12.1956C56.1934 10.6452 56.479 10.4666 58.0206 11.0527ZM74.3035 11.218C75.6208 12.1403 74.8106 13.8994 73.0688 13.8994H72.0951V12.3376C72.0951 10.8193 72.1173 10.7758 72.8837 10.7758C73.3176 10.7758 73.9565 10.9749 74.3035 11.218ZM91.0449 11.519C91.8306 12.0142 92.0867 12.9706 91.8934 14.686C91.717 16.2509 90.943 17.023 89.5504 17.023C88.2206 17.023 87.7507 16.7842 87.2765 15.8667C86.384 14.1408 86.9502 11.8092 88.416 11.1745C89.3278 10.7798 90.0153 10.8698 91.0449 11.519ZM48.6568 25.2237C46.3666 26.2639 45.2663 28.3603 45.2853 31.6469C45.3106 36.0278 47.655 38.3134 52.1285 38.3183C54.0986 38.3205 54.9434 37.9616 55.1793 37.0217C55.4644 35.8859 54.9899 35.6223 52.66 35.6223C50.9779 35.6223 50.4528 35.5127 49.938 35.0544C48.5023 33.7763 48.1192 31.1514 49.0645 29.0697C49.7259 27.6135 50.8282 27.1027 52.8043 27.3367C53.5849 27.4292 54.4112 27.4329 54.6404 27.3449C55.2949 27.0936 55.1543 25.6417 54.4263 25.132C53.5179 24.4957 50.1413 24.5493 48.6568 25.2237ZM58.3432 25.136C57.9664 25.5131 57.8971 26.4962 57.8971 31.4683C57.8971 35.6678 57.9948 37.4522 58.2379 37.6952C58.4253 37.8827 59.1025 38.036 59.7429 38.036C60.3832 38.036 61.0604 37.8827 61.2478 37.6952C61.4909 37.4522 61.5886 35.6669 61.5886 31.4643C61.5886 25.6994 61.5752 25.5645 60.9573 25.132C60.1466 24.5638 58.9134 24.5658 58.3432 25.136ZM64.3064 25.136C63.6896 25.753 63.745 26.8798 64.4095 27.2356C64.7116 27.3972 65.4783 27.5295 66.1132 27.5295H67.2678V32.4641C67.2678 38.0476 67.297 38.1269 69.3055 37.9823L70.5333 37.894L70.6108 32.7118L70.6881 27.5295H72.0448C72.7908 27.5295 73.5547 27.3761 73.7421 27.1887C74.2819 26.6489 74.1561 25.3169 73.5337 24.9838C73.2275 24.8199 71.1626 24.6899 68.8685 24.6899C65.5055 24.6899 64.671 24.7714 64.3064 25.136ZM77.8581 25.1175C77.1257 25.6304 73.3045 36.794 73.5987 37.5606C73.8315 38.1672 75.8536 38.2123 76.442 37.624C76.6686 37.3974 76.94 36.7528 77.0454 36.1917L77.2368 35.1711L79.1214 35.2549L81.0058 35.3384L81.2613 36.3322C81.4019 36.8789 81.6489 37.486 81.8102 37.681C82.2191 38.1763 84.5655 38.1448 84.7586 37.6416C84.8418 37.4243 84.0595 34.6123 83.0199 31.3922C81.0413 25.2629 80.7141 24.6899 79.1941 24.6899C78.7951 24.6899 78.1937 24.8824 77.8581 25.1175ZM86.7392 25.136C86.3621 25.5134 86.2931 26.5007 86.2931 31.5186V37.455L87.0059 37.9221C87.5729 38.2935 88.2303 38.3648 90.2203 38.2694C94.3644 38.0715 96.2405 36.5327 96.8783 32.8092C97.3383 30.124 96.8212 28.1034 95.2804 26.5652C93.8396 25.1263 92.4883 24.6899 89.4749 24.6899C87.7722 24.6899 87.0712 24.8043 86.7392 25.136ZM99.2843 24.9966C98.8356 25.2578 98.7873 25.874 98.7873 31.3422C98.7873 36.1627 98.8677 37.4652 99.1815 37.7256C99.447 37.946 100.815 38.0269 103.37 37.9735L107.164 37.894L107.256 37.0961C107.411 35.7405 106.931 35.4804 104.275 35.4804H101.881L101.967 33.9896L102.053 32.4988L104.295 32.3568C106.018 32.2478 106.61 32.0998 106.849 31.7179C107.076 31.357 107.076 31.0849 106.849 30.724C106.61 30.3421 106.018 30.1942 104.295 30.0851L102.053 29.9431L101.966 28.7363L101.878 27.5295H104.043C106.646 27.5295 107.306 27.2424 107.306 26.1097C107.306 25.5778 107.108 25.1718 106.757 24.9838C106.05 24.6055 99.9377 24.6161 99.2843 24.9966ZM110.336 25.0451C109.899 25.3651 109.858 26.0253 109.927 31.6472L110.004 37.894L114.185 37.9727L118.366 38.051L118.557 37.2897C118.899 35.9279 118.431 35.6365 115.653 35.4804L113.127 35.3384L113.052 30.3691C112.988 26.1049 112.91 25.3495 112.501 25.0448C111.892 24.5908 110.957 24.5911 110.336 25.0451ZM92.6371 27.8288C93.9595 28.8689 94.3209 32.0504 93.3572 34.1662C92.9153 35.1356 91.7619 35.7643 90.4247 35.7643H89.4167V31.5049V27.2455H90.6562C91.4765 27.2455 92.1464 27.4426 92.6371 27.8288ZM79.8648 30.7115C80.1207 31.7588 80.3299 32.6851 80.3299 32.7702C80.3299 32.8552 79.8188 32.9247 79.1941 32.9247C78.3593 32.9247 78.0583 32.8086 78.0583 32.4863C78.0583 31.5836 78.9962 28.3547 79.1941 28.5764C79.3071 28.7034 79.6093 29.664 79.8648 30.7115Z" fill="black"/>
</mask>
<g mask="url(#mask0_12_52364)">
<rect x="-3.40747" y="-12.21" width="44.0138" height="71.2739" fill="#FCD535"/>
</g>
</svg>

<svg width="119" height="50" fill="none" xmlns="http://www.w3.org/2000/svg"><mask id="a" style="mask-type:alpha" maskUnits="userSpaceOnUse" x="0" y="0" width="119" height="50"><path fill-rule="evenodd" clip-rule="evenodd" d="M9.805 2.718C4.515 4.322.112 5.71.02 5.803c-.2.2 1.15 10.305 1.97 14.749C3.488 28.687 7.305 36.605 12.905 43.2c2.004 2.359 6.063 6.194 6.556 6.194.463 0 5.112-4.481 6.997-6.746 4.67-5.612 8.106-12.276 9.883-19.175.5-1.942 2.903-17.539 2.727-17.701-.03-.029-4.144-1.283-9.142-2.788A3060.625 3060.625 0 0120.13.024c-.532-.168-3.113.506-10.325 2.694zm17.44 3.654c3.974 1.202 7.253 2.213 7.287 2.245.147.138-1.623 11.635-2.064 13.409-1.077 4.331-2.92 8.721-5.356 12.761l-1.017 1.687.01-8.66.01-8.661.913-.573c.847-.532.917-.697.996-2.342l.084-1.77H26.96c-1.045 0-1.15.066-1.15.728 0 .627-.108.716-.78.639-.56-.064-.807-.271-.872-.729-.074-.52-.27-.639-1.065-.639-.857 0-.974.088-.974.73 0 .594-.118.713-.639.639-.49-.07-.66-.306-.727-1.014-.057-.586-.243-.923-.511-.923-.337 0-.404-.355-.337-1.763l.084-1.764 2.237-.345c2.524-.389 3.27-.811 1.993-1.126-.452-.111-1.54-.566-2.419-1.01-2.553-1.29-2.52-1.322-2.52 2.486 0 3.021-.046 3.303-.552 3.436-.372.097-.58.436-.64 1.038-.065.678-.24.916-.725.985-.52.074-.64-.045-.64-.639 0-.642-.116-.73-.973-.73-.794 0-.991.118-1.065.64-.065.457-.313.664-.872.728-.672.077-.78-.012-.78-.639 0-.643-.117-.729-.994-.729h-.994v1.83c0 1.732.045 1.857.852 2.333l.851.503-.006 8.529c-.007 9.921.167 9.692-2.816 3.7-1.717-3.449-2.818-6.438-3.607-9.796C5.95 20 4.227 8.738 4.334 8.6c.145-.186 15.151-4.585 15.386-4.51.165.053 3.552 1.08 7.525 2.283zm20.182 3.6c-2.766 1.368-3.12 5.601-.642 7.686 1.094.92 3.073 1.27 4.598.813 1.243-.372 1.482-.627 1.222-1.305-.147-.383-.381-.433-1.208-.26-1.8.38-2.672.198-3.51-.73-1.673-1.856-.56-5.107 1.775-5.179.547-.016 1.391.067 1.877.186.76.186.905.13 1.044-.403.131-.502-.02-.694-.802-1.021-1.374-.574-2.918-.499-4.354.212zm6.968-.427c-.104.104-.19 2.149-.19 4.544v4.354h1.988v-1.704c0-1.435.079-1.703.497-1.7.83.008 1.2.403 1.754 1.864.485 1.284.612 1.405 1.555 1.486l1.027.088L60.443 17c-.32-.813-.706-1.709-.856-1.99-.211-.395-.11-.675.438-1.224 1.283-1.283.848-3.312-.864-4.027-.974-.407-4.418-.56-4.766-.213zm6.82.024c-.068.117.564 1.426 1.403 2.91 1.357 2.396 1.526 2.877 1.526 4.33v1.634h1.988v-1.837c0-1.695.11-2.024 1.42-4.241.78-1.322 1.42-2.548 1.42-2.724 0-.191-.375-.285-.923-.232-.816.079-1.036.302-1.893 1.924-.733 1.385-1.032 1.732-1.222 1.42a114.77 114.77 0 01-1.095-1.906c-.715-1.266-.967-1.49-1.671-1.49-.457 0-.885.095-.953.212zm9.247-.025c-.262.106-.355 1.285-.355 4.521v4.378h1.988v-3.124h1.415c1.146 0 1.584-.15 2.296-.786.751-.672.88-.985.88-2.143 0-1.536-.358-2.103-1.671-2.652-.877-.367-3.815-.492-4.553-.194zm7.028.655c0 .831.045.86 1.278.86h1.278v7.384h1.988v-7.351l1.206-.087c1.075-.078 1.207-.165 1.207-.797v-.71l-3.478-.08-3.479-.08v.861zm9.743-.306c-3.134 1.464-3.153 6.713-.03 8.225 1.61.78 2.913.77 4.475-.03 1.53-.785 2.282-2.101 2.282-4 0-2.75-1.516-4.472-4.091-4.651-1.012-.07-1.804.067-2.636.456zm-29.212 1.16c.557.212.728.476.728 1.126 0 .94-.632 1.436-1.827 1.436-.685 0-.729-.085-.729-1.42 0-1.55.286-1.728 1.828-1.142zm16.282.165c1.318.922.508 2.681-1.234 2.681h-.974v-1.561c0-1.519.022-1.562.789-1.562.434 0 1.073.199 1.42.442zm16.742.301c.786.495 1.042 1.452.848 3.167-.176 1.565-.95 2.337-2.343 2.337-1.33 0-1.8-.239-2.273-1.156-.893-1.726-.327-4.058 1.139-4.693.912-.394 1.6-.304 2.629.345zM48.657 25.224c-2.29 1.04-3.39 3.136-3.372 6.423.026 4.38 2.37 6.666 6.844 6.671 1.97.003 2.814-.356 3.05-1.296.285-1.136-.19-1.4-2.519-1.4-1.682 0-2.207-.11-2.722-.568-1.436-1.278-1.819-3.903-.873-5.984.66-1.457 1.763-1.967 3.74-1.733.78.092 1.606.096 1.835.008.655-.251.514-1.703-.214-2.213-.908-.636-4.285-.583-5.77.092zm9.686-.088c-.377.377-.446 1.36-.446 6.332 0 4.2.098 5.984.34 6.227.188.188.865.341 1.506.341.64 0 1.317-.153 1.505-.34.243-.244.34-2.03.34-6.232 0-5.765-.013-5.9-.63-6.332-.811-.568-2.045-.566-2.615.004zm5.963 0c-.616.617-.561 1.744.103 2.1.303.161 1.07.293 1.704.293h1.155v4.935c0 5.584.029 5.663 2.037 5.518l1.228-.088.078-5.182.077-5.183h1.357c.746 0 1.51-.153 1.697-.34.54-.54.414-1.872-.208-2.205-.306-.164-2.371-.294-4.666-.294-3.362 0-4.197.081-4.562.446zm13.552-.018c-.732.512-4.553 11.676-4.26 12.443.234.606 2.256.651 2.844.063.227-.227.498-.871.603-1.432l.192-1.02 1.884.083 1.885.083.255.994c.14.547.388 1.154.55 1.349.408.495 2.754.464 2.948-.04.083-.217-.7-3.029-1.74-6.249-1.978-6.13-2.305-6.702-3.825-6.702-.399 0-1 .192-1.336.427zm8.881.018c-.377.377-.446 1.365-.446 6.383v5.936l.713.467c.567.372 1.224.443 3.214.347 4.144-.197 6.02-1.736 6.658-5.46.46-2.685-.057-4.706-1.598-6.244-1.44-1.439-2.792-1.875-5.805-1.875-1.703 0-2.404.114-2.736.446zm12.545-.14c-.448.262-.497.878-.497 6.346 0 4.82.08 6.123.394 6.384.266.22 1.634.3 4.189.248l3.794-.08.092-.798c.155-1.355-.325-1.616-2.981-1.616h-2.394l.086-1.49.086-1.491 2.242-.142c1.723-.11 2.315-.257 2.554-.64.227-.36.227-.632 0-.993-.239-.382-.831-.53-2.554-.639l-2.242-.142-.087-1.207-.088-1.207h2.165c2.603 0 3.263-.287 3.263-1.42 0-.531-.198-.937-.549-1.125-.707-.379-6.82-.368-7.473.013zm11.052.05c-.437.32-.478.98-.409 6.601l.077 6.247 4.181.079 4.181.078.191-.761c.342-1.362-.126-1.654-2.904-1.81l-2.526-.142-.075-4.969c-.064-4.264-.142-5.02-.551-5.324-.609-.454-1.544-.454-2.165 0zm-17.699 2.783c1.323 1.04 1.684 4.221.72 6.337-.442.97-1.595 1.598-2.932 1.598h-1.008v-8.519h1.24c.82 0 1.49.198 1.98.584zm-12.772 2.883c.256 1.047.465 1.973.465 2.058 0 .085-.511.155-1.136.155-.835 0-1.136-.116-1.136-.439 0-.902.938-4.131 1.136-3.91.113.127.415 1.088.67 2.136z" fill="#000"/></mask><g mask="url(#a)"><path fill="#FCD535" d="M-3.407-12.21h44.014v71.274H-3.407z"/></g></svg>
